X: 105
T:Castle in the Air
M:4/4
L:1/8
R:Strathspey
K:A
"E"E|"A"A>G A>c E2 E2|A>G A>B c3 c| "D"d>c d>f "A"eA|"E"B>c B>A "D"
F2 "E"E2|!
"A"A>G A>c E2 E2|A>G A>B c3 c| "D"d>e f>a "A"eB|"A"c>d "E"c>B "A'"A
3 f|!
"D"f2 f>a "A"e2 e2|"E"d>c dc d>f "A" eA|"Bm"B>c B>A
 "D"F2 "E"E2|!
"A"A>G A>c E2 E2|A>G AB c3 c|"D"d>e fc A>B|cB "A"A3||
% 

